!!! OTL: Berkowitz342
!!! Chapter: 1
!!! Section: III
!!! Page: 83
!!! Mode: 
!!! Encoder: DJB
**kern
*staff1
*I"Piano
=1-
*clefF4
*k[b-e-a-d-]
*f:
*met(c|)
*M2/2
4r
4r
4r
4c\
=2
4C/
8En\L
8G\J
4B-\
8A-\L
8G\J
=3
4A-\
4G\
2F\
=4
4F\
8An\L
8c\J
4e-\
8d-\L
8c\J
=5
4d-\
4c\
4B-\
4Bn\
=6
4c\
8A-\L
8F\J
2C/
=7
4B-\
8G\L
8En\J
4C/
8Dn\L
8E\J
=8
!!linebreak:original
4F\
4A-\
4c\
4C/
=9
2F\
2r
==
*-
